src/topics/icons/backbone.svg

<svg height="92" preserveAspectRatio="xMidYMid" viewBox="0 0 512 92" width="512" xmlns="http://www.w3.org/2000/svg"><g fill="#002a41" transform="translate(103.403922 21.082353)"><path d="m.5568464 1.34317342h13.3626947c6.0204066.00005682 10.4413105 1.02196986 13.2627247 3.06579594 2.8213467 2.0438829 4.232039 5.13184123 4.2320732 9.26387494-.0000342 2.8214415-.8608893 5.1707107-2.5825652 7.047921-1.7217424 1.8772675-4.2376584 3.0824463-7.547755 3.6155936v.199916c3.8877021.5776426 6.7479602 1.8050974 8.5807834 3.682251 1.8327492 1.8772673 2.7491409 4.4931671 2.7491807 7.847699-.0000398 4.487541-1.4884823 7.942088-4.465339 10.3635837-2.976923 2.4214958-7.1978864 3.6322437-12.6629015 3.6322437h-14.928896zm3.39898972 21.69356078h10.73014428c4.5763917.0000569 7.9031769-.7608515 9.9803666-2.2826683 2.0771271-1.5217032 3.1157084-3.9043296 3.1157426-7.1478223-.0000342-3.2434928-1.1719093-5.59833097-3.5156234-7.06457132-2.3437764-1.46618353-5.837179-2.19930372-10.4802188-2.19936054h-9.83041128zm0 2.9991382v21.0270415h11.46325938c9.0195103.0000568 13.5292751-3.6655441 13.5293093-10.996689-.0000342-6.6869016-4.7541706-10.0303525-14.2624244-10.0303525z"/><path d="m66.8038246 32.8671705h-19.7941198l-6.7979749 17.1948818h-3.7655475l19.5941751-48.91879492h2.1660206l19.1942976 48.91879492h-3.8321937zm-18.5611529-3.065739h17.4281551l-6.6313649-17.5614703c-.5554121-1.3773067-1.2218802-3.28787434-1.9994047-5.73164614-.5998391 2.13275974-1.2551977 4.06548974-1.9660816 5.79830374z"/><path d="m105.059116 3.70914958c-6.1093156.00005684-10.9189898 1.95500609-14.4290448 5.86496139-3.5100778 3.90995533-5.2651054 9.26393183-5.2650998 16.06187263-.0000056 6.9534753 1.6550525 12.3518902 4.9651916 16.1951878 3.3101107 3.8432977 8.0420345 5.7649466 14.195777 5.7649466 4.087647 0 7.84208-.5220662 11.26332-1.5661983v2.9990813c-3.221296 1.1330092-7.24232 1.6995139-12.063081 1.6995139-6.8424297 0-12.2297122-2.2104418-16.161864-6.6313821-3.9321688-4.4208835-5.8982504-10.5968-5.8982448-18.5278069-.0000056-4.9540306.9386053-9.3193945 2.8158327-13.0960914 1.8772105-3.77664012 4.5764009-6.69241379 8.0975882-8.7474347 3.5211592-2.05485046 7.6143799-3.08233251 12.2796859-3.08238934 4.75411.00005683 9.008394.88865463 12.762872 2.66585022l-1.36626 3.06579595c-3.554533-1.77725241-7.286752-2.66585021-11.196673-2.66590705z"/><path d="m159.409626 50.0620523h-4.16543l-18.694446-25.7256934-6.498067 5.7316462v19.9940472h-3.398987v-48.71887888h3.398987v25.32580448l5.398399-5.3983581 19.094322-19.92744638h4.332046l-19.960734 20.59390888z"/><path d="m166.374234 1.34317342h13.362693c6.020411.00005682 10.441312 1.02196986 13.262725 3.06579594 2.82135 2.0438829 4.232042 5.13184123 4.232076 9.26387494-.000034 2.8214415-.860888 5.1707107-2.582565 7.047921-1.721743 1.8772675-4.237657 3.0824463-7.547756 3.6155936v.199916c3.887702.5776426 6.747962 1.8050974 8.580785 3.682251 1.832749 1.8772673 2.74914 4.4931671 2.749181 7.847699-.000041 4.487541-1.488483 7.942088-4.465339 10.3635837-2.976925 2.4214958-7.197887 3.6322437-12.662903 3.6322437h-14.928897zm3.398993 21.69356078h10.730143c4.57639.0000569 7.903174-.7608515 9.980363-2.2826683 2.077132-1.5217032 3.115707-3.9043296 3.115741-7.1478223-.000034-3.2434928-1.171908-5.59833097-3.515619-7.06457132-2.343774-1.46618353-5.837178-2.19930372-10.48022-2.19936054h-9.830408zm0 2.9991382v21.0270415h11.463258c9.019509.0000568 13.529276-3.6655441 13.52931-10.996689-.000034-6.6869016-4.754172-10.0303525-14.262425-10.0303525z"/><path d="m250.116011 25.6359836c-.000053 7.7310339-1.932811 13.8458618-5.798283 18.344541-3.865551 4.4986791-9.197296 6.7479903-15.995242 6.7479903-6.775785 0-12.09642-2.2493112-15.961922-6.7479903-3.865526-4.4986792-5.79828-10.6357265-5.79828-18.4111987 0-7.7531961 1.949414-13.856943 5.848266-18.31124046 3.898822-4.45418385 9.225016-6.68127577 15.978581-6.6813326 6.797948.00005683 12.118583 2.23828676 15.961921 6.7146898 3.843257 4.47645996 5.764906 10.59128796 5.764959 18.34454096zm-39.854826 0c-.000006 6.9756944 1.555083 12.3685403 4.665283 16.1785376 3.110174 3.8099406 7.575505 5.7149392 13.396018 5.7149392 5.864891 0 10.346888-1.8882916 13.446001-5.6649886 3.09904-3.7766401 4.648576-9.1861363 4.648621-16.2284882-.000045-7.0201328-1.549581-12.4018407-4.648621-16.14523727-3.099113-3.74328285-7.558895-5.61492429-13.379356-5.61498111-5.798299.00005682-10.269183 1.88840529-13.412678 5.66498855-3.143517 3.77669693-4.715274 9.14175453-4.715268 16.09522983z"/><path d="m296.702152 50.0620523h-3.432311l-28.858091-43.25380637h-.266583c.266572 5.15406047.39987 9.04179657.399876 11.66320837v31.590598h-3.265694v-48.71887888h3.398992l28.824761 43.18720538h.199946c-.199986-3.9988319-.299955-7.7976913-.299915-11.3966346v-31.79057078h3.299019z"/><path d="m337.090157 50.0620523h-26.625417v-48.71887888h26.625417v3.13245358h-23.22643v18.4278488h21.926817v3.1323966h-21.926817v20.8937831h23.22643z"/><path d="m346.687286 47.4628028c-.000006-2.1770845.888615-3.2656553 2.665873-3.2656553 1.821668 0 2.732508 1.0885708 2.73252 3.2656553-.000012 2.1771414-.910852 3.2657121-2.73252 3.2657121-1.777258 0-2.665879-1.0885707-2.665873-3.2657121z"/><path d="m356.451047 62.3583659c-2.043831 0-3.721109-.299874-5.031837-.8996789v-2.9324808c1.732825.4442706 3.387884.6664626 4.965193.6664626 5.376171 0 8.064265-2.9324807 8.064271-8.7973852v-49.05211018h3.398987v48.71887888c-.000012 8.1975235-3.798877 12.2963136-11.396614 12.2963136z"/><path d="m408.269 37.499108c-.000034 4.0654898-1.494029 7.2867633-4.482 9.6638208-2.988028 2.3770573-6.959061 3.5655861-11.913127 3.5655861-5.953792 0-10.5191-.6553815-13.695924-1.9660875v-3.3989703c3.510062 1.4884596 7.986504 2.2326609 13.429341 2.2326609 3.998785 0 7.170063-.916386 9.513836-2.749158 2.343719-1.8328289 3.51559-4.2376744 3.515624-7.2145368-.000034-1.8439099-.388807-3.3712388-1.16632-4.5819869-.777575-1.2107479-2.043864-2.3159688-3.798871-3.3156624-1.755061-.9996939-4.332068-2.0771265-7.731038-3.2324117-4.976308-1.7105379-8.414176-3.560017-10.3136-5.5483235-1.899441-1.9882497-2.849155-4.6375065-2.849149-7.9476569-.000006-3.64332486 1.427342-6.61461814 4.282055-8.91399352 2.854696-2.29926172 6.525826-3.44892099 11.013397-3.44897782 4.576389.00005683 8.875113.86643543 12.896164 2.59924944l-1.232969 2.93242387c-4.043269-1.68831876-7.908781-2.53253498-11.596549-2.53259181-3.598949.00005683-6.46476.83313504-8.597447 2.49929142-2.132709 1.66621321-3.199054 3.93217452-3.199048 6.79794082-.000006 1.7995284.327673 3.27685.983043 4.4320215.655348 1.155285 1.72725 2.1938483 3.21571 3.1157465 1.488431.9220119 4.043226 2.0272327 7.664387 3.3157194 3.798848 1.3107059 6.65355 2.5825424 8.564123 3.8155094 1.910511 1.2329672 3.304542 2.6325499 4.182088 4.1987483.877482 1.5661983 1.31624 3.4601158 1.316274 5.6816387z"/></g><path d="m.2922382.53494616v49.31518914l36.7067695 20.9243859v-14.2233395l-24.5563112-13.9981194v-21.9869981l24.5563112 13.9981194v-13.1048516z" fill="#002a41"/><path d="m73.7057774.53494616v49.31518914l-36.7067697 20.9243859v-14.2233395l24.5563113-13.9981194v-21.9869981l-24.5563113 13.9981194v-13.1048516z" fill="#0071b5"/><path d="m.2922382 91.7207663v-49.315189l36.7067695-20.9243859v14.2233394l-24.5563112 13.9981194v20.8685092l24.5563112-13.9981184v14.2233395z" fill="#0071b5"/><path d="m73.7057774 91.7207663v-49.315189l-36.7067697-20.9243859v14.2233394l24.5563113 13.9981194v20.8685092l-24.5563113-13.9981184v14.2233395z" fill="#002a41"/></svg>

<?xml version="1.0" encoding="UTF-8" standalone="no"?>
<svg width="512px" height="92px" viewBox="0 0 512 92" version="1.1" xmlns="http://www.w3.org/2000/svg" xmlns:xlink="http://www.w3.org/1999/xlink" preserveAspectRatio="xMidYMid">
	<g>
		<g transform="translate(103.403922, 21.082353)" fill="#002A41">
			<path d="M0.556846403,1.34317342 L13.9195411,1.34317342 C19.9399477,1.34323024 24.3608516,2.36514328 27.1822658,4.40896936 C30.0036125,6.45285226 31.4143048,9.54081059 31.414339,13.6728443 C31.4143048,16.4942858 30.5534497,18.843555 28.8317738,20.7207653 C27.1100314,22.5980328 24.5941154,23.8032116 21.2840188,24.3363589 L21.2840188,24.5362749 C25.1717209,25.1139175 28.031979,26.3413723 29.8648022,28.2185259 C31.6975514,30.0957932 32.6139431,32.711693 32.6139829,36.0662249 C32.6139431,40.5537659 31.1255006,44.0083129 28.1486439,46.4298086 C25.1717209,48.8513044 20.9507575,50.0620523 15.4857424,50.0620523 L0.556846403,50.0620523 L0.556846403,1.34317342 L0.556846403,1.34317342 Z M3.95583612,23.0367342 L14.6859804,23.0367342 C19.2623721,23.0367911 22.5891573,22.2758827 24.666347,20.7540659 C26.7434741,19.2323627 27.7820554,16.8497363 27.7820896,13.6062436 C27.7820554,10.3627508 26.6101803,8.00791263 24.2664662,6.54167228 C21.9226898,5.07548875 18.4292872,4.34236856 13.7862474,4.34231174 L3.95583612,4.34231174 L3.95583612,23.0367342 L3.95583612,23.0367342 Z M3.95583612,26.0358724 L3.95583612,47.0629139 L15.4190955,47.0629139 C24.4386058,47.0629707 28.9483706,43.3973698 28.9484048,36.0662249 C28.9483706,29.3793233 24.1942342,26.0358724 14.6859804,26.0358724 L3.95583612,26.0358724 L3.95583612,26.0358724 Z"></path>
			<path d="M66.8038246,32.8671705 L47.0097048,32.8671705 L40.2117299,50.0620523 L36.4461824,50.0620523 L56.0403575,1.14325738 L58.2063781,1.14325738 L77.4006757,50.0620523 L73.568482,50.0620523 L66.8038246,32.8671705 L66.8038246,32.8671705 Z M48.2426717,29.8014315 L65.6708268,29.8014315 L59.0394619,12.2399612 C58.4840498,10.8626545 57.8175817,8.95208686 57.0400572,6.50831506 C56.4402181,8.6410748 55.7848595,10.5738048 55.0739756,12.3066188 L48.2426717,29.8014315 L48.2426717,29.8014315 Z"></path>
			<path d="M105.059116,3.70914958 C98.9498004,3.70920642 94.1401262,5.66415567 90.6300712,9.57411097 C87.1199934,13.4840663 85.3649658,18.8380428 85.3649714,25.6359836 C85.3649658,32.5894589 87.0200239,37.9878738 90.330163,41.8311714 C93.6402737,45.6744691 98.3721975,47.596118 104.52594,47.596118 C108.613587,47.596118 112.36802,47.0740518 115.78926,46.0299197 L115.78926,49.029001 C112.567964,50.1620102 108.54694,50.7285149 103.726179,50.7285149 C96.8837493,50.7285149 91.4964668,48.5180731 87.564315,44.0971328 C83.6321462,39.6762493 81.6660646,33.5003328 81.6660702,25.5693259 C81.6660646,20.6152953 82.6046755,16.2499314 84.4819029,12.4732345 C86.3591134,8.69659438 89.0583038,5.78082071 92.5794911,3.7257998 C96.1006503,1.67094934 100.193871,0.643467294 104.859177,0.643410462 C109.613287,0.643467294 113.867571,1.53206509 117.622049,3.30926068 L116.255789,6.37505663 C112.701256,4.59780422 108.969037,3.70920642 105.059116,3.70914958 L105.059116,3.70914958 L105.059116,3.70914958 Z"></path>
			<path d="M159.409626,50.0620523 L155.244196,50.0620523 L136.54975,24.3363589 L130.051683,30.0680051 L130.051683,50.0620523 L126.652696,50.0620523 L126.652696,1.34317342 L130.051683,1.34317342 L130.051683,26.6689779 L135.450082,21.2706198 L154.544404,1.34317342 L158.87645,1.34317342 L138.915716,21.9370823 L159.409626,50.0620523 L159.409626,50.0620523 Z"></path>
			<path d="M166.374234,1.34317342 L179.736927,1.34317342 C185.757338,1.34323024 190.178239,2.36514328 192.999652,4.40896936 C195.821002,6.45285226 197.231694,9.54081059 197.231728,13.6728443 C197.231694,16.4942858 196.37084,18.843555 194.649163,20.7207653 C192.92742,22.5980328 190.411506,23.8032116 187.101407,24.3363589 L187.101407,24.5362749 C190.989109,25.1139175 193.849369,26.3413723 195.682192,28.2185259 C197.514941,30.0957932 198.431332,32.711693 198.431373,36.0662249 C198.431332,40.5537659 196.94289,44.0083129 193.966034,46.4298086 C190.989109,48.8513044 186.768147,50.0620523 181.303131,50.0620523 L166.374234,50.0620523 L166.374234,1.34317342 L166.374234,1.34317342 Z M169.773227,23.0367342 L180.50337,23.0367342 C185.07976,23.0367911 188.406544,22.2758827 190.483733,20.7540659 C192.560865,19.2323627 193.59944,16.8497363 193.599474,13.6062436 C193.59944,10.3627508 192.427566,8.00791263 190.083855,6.54167228 C187.740081,5.07548875 184.246677,4.34236856 179.603635,4.34231174 L169.773227,4.34231174 L169.773227,23.0367342 L169.773227,23.0367342 Z M169.773227,26.0358724 L169.773227,47.0629139 L181.236485,47.0629139 C190.255994,47.0629707 194.765761,43.3973698 194.765795,36.0662249 C194.765761,29.3793233 190.011623,26.0358724 180.50337,26.0358724 L169.773227,26.0358724 L169.773227,26.0358724 Z"></path>
			<path d="M250.116011,25.6359836 C250.115958,33.3670175 248.1832,39.4818454 244.317728,43.9805246 C240.452177,48.4792037 235.120432,50.7285149 228.322486,50.7285149 C221.546701,50.7285149 216.226066,48.4792037 212.360564,43.9805246 C208.495038,39.4818454 206.562284,33.3447981 206.562284,25.5693259 C206.562284,17.8161298 208.511698,11.7123829 212.41055,7.25808544 C216.309372,2.80390159 221.635566,0.576809673 228.389131,0.576752841 C235.187079,0.576809673 240.507714,2.8150396 244.351052,7.29144264 C248.194309,11.7679026 250.115958,17.8827306 250.116011,25.6359836 L250.116011,25.6359836 L250.116011,25.6359836 Z M210.261185,25.6359836 C210.261179,32.611678 211.816268,38.0045239 214.926468,41.8145212 C218.036642,45.6244618 222.501973,47.5294604 228.322486,47.5294604 C234.187377,47.5294604 238.669374,45.6411688 241.768487,41.8644718 C244.867527,38.0878317 246.417063,32.6783355 246.417108,25.6359836 C246.417063,18.6158508 244.867527,13.2341429 241.768487,9.49074633 C238.669374,5.74746348 234.209592,3.87582204 228.389131,3.87576522 C222.590832,3.87582204 218.119948,5.76417051 214.976453,9.54075377 C211.832936,13.3174507 210.261179,18.6825083 210.261185,25.6359836 L210.261185,25.6359836 L210.261185,25.6359836 Z"></path>
			<path d="M296.702152,50.0620523 L293.269841,50.0620523 L264.41175,6.80824593 L264.145167,6.80824593 C264.411739,11.9623064 264.545037,15.8500425 264.545043,18.4714543 L264.545043,50.0620523 L261.279349,50.0620523 L261.279349,1.34317342 L264.678341,1.34317342 L293.503102,44.5303788 L293.703048,44.5303788 C293.503062,40.5315469 293.403093,36.7326875 293.403133,33.1337442 L293.403133,1.34317342 L296.702152,1.34317342 L296.702152,50.0620523 L296.702152,50.0620523 Z"></path>
			<path d="M337.090157,50.0620523 L310.46474,50.0620523 L310.46474,1.34317342 L337.090157,1.34317342 L337.090157,4.475627 L313.863727,4.475627 L313.863727,22.9034758 L335.790544,22.9034758 L335.790544,26.0358724 L313.863727,26.0358724 L313.863727,46.9296555 L337.090157,46.9296555 L337.090157,50.0620523 L337.090157,50.0620523 Z"></path>
			<path d="M346.687286,47.4628028 C346.68728,45.2857183 347.575901,44.1971475 349.353159,44.1971475 C351.174827,44.1971475 352.085667,45.2857183 352.085679,47.4628028 C352.085667,49.6399442 351.174827,50.7285149 349.353159,50.7285149 C347.575901,50.7285149 346.68728,49.6399442 346.687286,47.4628028 L346.687286,47.4628028 L346.687286,47.4628028 Z"></path>
			<path d="M356.451047,62.3583659 C354.407216,62.3583659 352.729938,62.0584919 351.41921,61.458687 L351.41921,58.5262062 C353.152035,58.9704768 354.807094,59.1926688 356.384403,59.1926688 C361.760574,59.1926688 364.448668,56.2601881 364.448674,50.3952836 L364.448674,1.34317342 L367.847661,1.34317342 L367.847661,50.0620523 C367.847649,58.2595758 364.048784,62.3583659 356.451047,62.3583659 L356.451047,62.3583659 L356.451047,62.3583659 Z"></path>
			<path d="M408.269,37.499108 C408.268966,41.5645978 406.774971,44.7858713 403.787,47.1629288 C400.798972,49.5399861 396.827939,50.7285149 391.873873,50.7285149 C385.920081,50.7285149 381.354773,50.0731334 378.177949,48.7624274 L378.177949,45.3634571 C381.688011,46.8519167 386.164453,47.596118 391.60729,47.596118 C395.606075,47.596118 398.777353,46.679732 401.121126,44.84696 C403.464845,43.0141311 404.636716,40.6092856 404.63675,37.6324232 C404.636716,35.7885133 404.247943,34.2611844 403.47043,33.0504363 C402.692855,31.8396884 401.426566,30.7344675 399.671559,29.7347739 C397.916498,28.73508 395.339491,27.6576474 391.940521,26.5023622 C386.964213,24.7918243 383.526345,22.9423452 381.626921,20.9540387 C379.72748,18.965789 378.777766,16.3165322 378.777772,13.0063818 C378.777766,9.36305694 380.205114,6.39176366 383.059827,4.09238828 C385.914523,1.79312656 389.585653,0.643467294 394.073224,0.643410462 C398.649613,0.643467294 402.948337,1.50984589 406.969388,3.2426599 L405.736419,6.17508377 C401.69315,4.48676501 397.827638,3.64254879 394.13987,3.64249196 C390.540921,3.64254879 387.67511,4.475627 385.542423,6.14178338 C383.409714,7.80799659 382.343369,10.0739579 382.343375,12.9397242 C382.343369,14.7392526 382.671048,16.2165742 383.326418,17.3717457 C383.981766,18.5270307 385.053668,19.565594 386.542128,20.4874922 C388.030559,21.4095041 390.585354,22.5147249 394.206515,23.8032116 C398.005363,25.1139175 400.860065,26.385754 402.770638,27.618721 C404.681149,28.8516882 406.07518,30.2512709 406.952726,31.8174693 C407.830208,33.3836676 408.268966,35.2775851 408.269,37.499108 L408.269,37.499108 L408.269,37.499108 Z"></path>
		</g>
		<g>
			<path d="M0.292238205,0.534946162 L0.292238205,49.8501353 L36.9990077,70.7745212 L36.9990077,56.5511817 L12.4426965,42.5530623 L12.4426965,20.5660642 L36.9990077,34.5641836 L36.9990077,21.459332 L0.292238205,0.534946162 L0.292238205,0.534946162 Z" fill="#002A41"></path>
			<path d="M73.7057774,0.534946162 L73.7057774,49.8501353 L36.9990077,70.7745212 L36.9990077,56.5511817 L61.555319,42.5530623 L61.555319,20.5660642 L36.9990077,34.5641836 L36.9990077,21.459332 L73.7057774,0.534946162 L73.7057774,0.534946162 Z" fill="#0071B5"></path>
			<path d="M0.292238205,91.7207663 L0.292238205,42.4055773 L36.9990077,21.4811914 L36.9990077,35.7045308 L12.4426965,49.7026502 L12.4426965,70.5711594 L36.9990077,56.573041 L36.9990077,70.7963805 L0.292238205,91.7207663 L0.292238205,91.7207663 Z" fill="#0071B5"></path>
			<path d="M73.7057774,91.7207663 L73.7057774,42.4055773 L36.9990077,21.4811914 L36.9990077,35.7045308 L61.555319,49.7026502 L61.555319,70.5711594 L36.9990077,56.573041 L36.9990077,70.7963805 L73.7057774,91.7207663 L73.7057774,91.7207663 Z" fill="#002A41"></path>
		</g>
	</g>
</svg>
